!!!COM: Palestrina, Giovanni Perluigi da
!!!OPR: Missa Veni Sancte Spiritus
!!!OMD: Sanctus
!!!OTL: Pleni
**kern	**kern	**kern
*Itenor	*Icalto	*Icant
!Tenor	!Altus	!Cantus
*clefGv2	*clefG2	*clefG2
*k[b-]	*k[b-]	*k[b-]
*G:dor	*G:dor	*G:dor
*M4/2	*M4/2	*M4/2
=31	=31	=31
0r	0d	0r
=32	=32	=32
0r	1f	0r
.	2g	.
.	[2g	.
=33	=33	=33
0r	2g]	0dd
.	4f	.
.	4e	.
.	2f	.
.	2g	.
=34	=34	=34
0r	2a	1ff
.	2.b-	.
.	.	2gg
.	4g	.
.	2cc	[2gg
=35	=35	=35
0d	2b-	2gg]
.	4a	4ff
.	4g	4ee
.	2a	2.ff
.	[2b-	.
.	.	4ee
=36	=36	=36
1f	2b-]	2dd
.	2a	2cc
2g	2g	2b-
[2g	2c	2cc
=37	=37	=37
2g]	0d	1a
4f	.	.
4e	.	.
1f	.	2r
.	.	[2dd
=38	=38	=38
2g	1r	2dd]
2d	.	2.ff
2.f	[1d	.
.	.	4ee-
.	.	4dd
4e-	.	4cc
=39	=39	=39
4d	1d]	4b-
4c	.	4a
1B-	.	1dd
.	1f	.
2A	.	2cc
=40	=40	=40
1G	2g	1b-
.	1g	.
1d	.	1a
.	4f	.
.	4e	.
=41	=41	=41
2r	1f	1a
2d	.	.
2e	2g	1cc
[2f	[2a	.
=42	=42	=42
4f]	4a]	2dd
4d	4f	.
2g	2b-	1dd
2f	2a	.
4e	4g	4cc
4d	4f	4b-
=43	=43	=43
2e	2g	1cc
2f	2a	.
4B-	1b-	2dd
4c	.	.
4d	.	[2ff
4e	.	.
=44	=44	=44
2f	2a	4ff]
.	.	4cc
2c	2.cc	2ee-
1g	.	2.dd
.	4b-	.
.	[2b-	.
.	.	8cc
.	.	8b-
=45	=45	=45
1f	2b-]	1cc
.	2a	.
[1B-	2b-	1dd
.	[2f	.
=46	=46	=46
0B-]	2f]	2r
.	2d	1ff
.	2.f	.
.	.	2dd
.	4g	.
=47	=47	=47
1r	2a	1ff
.	2b-	.
2r	1a	2.cc
[2f	.	.
.	.	4b-
=48	=48	=48
2f]	2r	4a
.	.	4g
2d	2f	1a
1f	2d	.
.	[2f	4g
.	.	4f
=49	=49	=49
2.c	2f]	1g
.	4e	.
4B-	4d	.
4A	2e	[1cc
4G	.	.
[2A	4c	.
.	4d	.
=50	=50	=50
2A]	4e	2cc]
.	4c	.
4G	1f	4b-
4F	.	4a
1G	.	1b-
.	2e	.
=51	=51	=51
1F	0f	2a
.	.	1cc
2r	.	.
[2f	.	2a
=52	=52	=52
2f]	1r	2cc
2d	.	4f
.	.	4g
2.f	[1cc	4a
.	.	4b-
.	.	4cc
8e	.	4dd
8d	.	.
=53	=53	=53
2c	2cc]	2ee
2d	2a	1ff
2.A	1cc	.
.	.	4ee
4B	.	4dd
=54	=54	=54
2c	2.g	2ee
2B	.	2dd
.	4f	.
[1c	4e	2.cc
.	4d	.
.	[2e	.
.	.	8b-
.	.	8a
=55	=55	=55
1c]	2e]	2g
.	4d	1cc
.	4c	.
1G	1d	.
.	.	2b
=56	=56	=56
2r	1c	0cc
1c	.	.
.	2r	.
2A	[2f	.
=57	=57	=57
2.B-	2f]	2r
.	2d	1ff
4c	.	.
[1d	2.f	.
.	.	2dd
.	4g	.
=58	=58	=58
2d]	2a	1ff
2B-	2b-	.
1f	2.a	2.cc
.	4g	4b-
=59	=59	=59
1r	4f	4a
.	4e	4g
.	1f	1a
[1c	.	.
.	4e	4g
.	4d	4f
=60	=60	=60
2c]	2e	2g
2A	1f	2a
1c	.	2.g
.	2e-	.
.	.	4a
=61	=61	=61
2.G	1d	0b-
4A	.	.
2B-	1g	.
2c	.	.
=62	=62	=62
[0d	[0f#	[0a
=63	=63	=63
0d]	0f#]	0a]
*-	*-	*-
!!!CDT: 1525/^1526/-1594/2/2
!!!OCY: Italia
!!!AGN: Mass (Parody)
!!!AST: renaissance, vocal
!!!ASW: Motet (unidentified (Pal?))
!!!PWK: Masses, Book 4
!!!RNB: Cadence finals: D
!!!YOR: Le Opere Complete, v. 10, p. 115
!!!YOO: Rome, Italy: Fratelli Scalera
!!!END: 1992//
!!!EED: John Miller
!!!YEC: Copyright 2000, John Miller
!!!YEN: United States of America
!!!YEM: Rights to all derivative electronic formats reserved.
!!!YEM: Refer to licensing agreement for further details.
!!!YEM: This file must be accompanied by the licensing agreement.
!!!YEM: A copy of the licensing agreement may be found at http://www.music-cog.ohio-state.edu/HumdrumDatabases/Palestrina/license.txt
!!!EMD: converted to Humdrum by Bret Aarden
